src/components/stable/gux-icon/icons/cc-generic-application.svg

<svg viewBox="0 0 24 33" fill="none" xmlns="http://www.w3.org/2000/svg">
  <path fill-rule="evenodd" clip-rule="evenodd" d="M24 28.9997V8.23993C23.9994 7.84673 23.9212 7.45752 23.77 7.09456C23.6188 6.73161 23.3975 6.40203 23.1188 6.12469L17.8752 0.881187C17.3132 0.318676 16.5512 0.00181293 15.756 0H3.00521C2.20818 0 1.44379 0.316613 0.880206 0.880188C0.31662 1.44376 0 2.20813 0 3.00515V28.9997C0 29.7967 0.31662 30.5611 0.880206 31.1247C1.44379 31.6882 2.20818 32.0048 3.00521 32.0048H21.0006C21.7966 32.0033 22.5595 31.686 23.1218 31.1226C23.6842 30.5592 24 29.7957 24 28.9997ZM16.0003 7.99951V3.24362L20.7563 7.99951H16.0003ZM21.0006 10.9998V28.9997L3.00521 29.0045V3.00515H13V9.50015C13 9.89789 13.158 10.2793 13.4392 10.5606C13.7205 10.8418 14.1019 10.9998 14.4997 10.9998H21.0006ZM11.7193 17.5C11.7193 18.8807 10.6253 20 9.27587 20C7.92641 20 6.83246 18.8807 6.83246 17.5C6.83246 16.1193 7.92641 15 9.27587 15C10.6253 15 11.7193 16.1193 11.7193 17.5ZM13.5519 24.25C13.5519 24.6641 13.1702 25 12.6967 25H5.85519C5.38178 25 5 24.6641 5 24.25V23.5C5 22.2578 6.14917 21.25 7.56558 21.25C7.7372 21.25 7.87972 21.2986 8.05238 21.3574C8.31761 21.4479 8.65392 21.5625 9.27597 21.5625C9.88235 21.5625 10.2314 21.4468 10.5047 21.3562L10.5047 21.3562C10.6805 21.2979 10.825 21.25 10.9864 21.25C12.4028 21.25 13.5519 22.2578 13.5519 23.5V24.25ZM14.6781 23.6329H18.7097C18.8662 23.6329 18.996 23.4611 18.996 23.2501V22.4845C18.996 22.2736 18.8662 22.1017 18.7097 22.1017H14.6781C14.5215 22.1017 14.3917 22.2736 14.3917 22.4845V23.2501C14.3917 23.4611 14.5215 23.6329 14.6781 23.6329ZM18.6296 20.5704H13.4641C13.2617 20.5704 13.0938 20.3986 13.0938 20.1876V19.422C13.0938 19.2111 13.2617 19.0392 13.4641 19.0392H18.6296C18.8319 19.0392 18.9999 19.2111 18.9999 19.422V20.1876C18.9999 20.3986 18.8319 20.5704 18.6296 20.5704ZM13.4641 17.5078H18.6296C18.8319 17.5078 18.9999 17.3359 18.9999 17.125V16.3594C18.9999 16.1484 18.8319 15.9766 18.6296 15.9766H13.4641C13.2617 15.9766 13.0938 16.1484 13.0938 16.3594V17.125C13.0938 17.3359 13.2617 17.5078 13.4641 17.5078Z"/>
</svg>

<svg viewBox="0 0 24 33" fill="none" xmlns="http://www.w3.org/2000/svg"><path clip-rule="evenodd" d="M24 29V8.24a2.99 2.99 0 00-.881-2.115L17.875.88A3.005 3.005 0 0015.756 0H3.006A3.005 3.005 0 000 3.005V29a3.005 3.005 0 003.005 3.005h17.996A3.005 3.005 0 0024 29zM16 8V3.244L20.756 8H16zm5 3v18l-17.995.005v-26H13V9.5a1.5 1.5 0 001.5 1.5H21zm-9.28 6.5c0 1.38-1.095 2.5-2.444 2.5-1.35 0-2.444-1.12-2.444-2.5S7.926 15 9.276 15c1.35 0 2.443 1.12 2.443 2.5zm1.832 6.75c0 .414-.382.75-.855.75H5.855C5.382 25 5 24.664 5 24.25v-.75c0-1.242 1.15-2.25 2.566-2.25.171 0 .314.049.486.107.266.09.602.206 1.224.206.606 0 .955-.116 1.229-.207.175-.058.32-.106.481-.106 1.417 0 2.566 1.008 2.566 2.25v.75zm1.126-.617h4.032c.156 0 .286-.172.286-.383v-.765c0-.211-.13-.383-.286-.383h-4.032c-.157 0-.286.172-.286.383v.765c0 .211.13.383.286.383zm3.952-3.063h-5.166a.378.378 0 01-.37-.382v-.766a.38.38 0 01.37-.383h5.166c.202 0 .37.172.37.383v.766a.378.378 0 01-.37.382zm-5.166-3.062h5.166c.202 0 .37-.172.37-.383v-.766a.378.378 0 00-.37-.382h-5.166a.378.378 0 00-.37.382v.766c0 .21.168.383.37.383z"/></svg>
